X:48b
T:Old Ebeneezer Scrooge
C:David Grier
S:Jim Coon to CoMandoList TOW
M:4/4
L:1/8
Q:1/8=440
K:C
|G,2G2 G,2G2|G,2G2 G,DFG|G,2G2 G,2G2|G,2G2 G,DFG|!
G,2G2 G,2GD|G,2GD G,DFG|G,2G2 G,DG2|G,6G2 !
|:G,DGF ECEC|DFGD _BGBG|G,DGF ECEC|DDFD GDCF,|!
G,2GF ECEC|DDFG _BAG2|G,DGF ECEC|1 DDFD G4:|2 DDDF G2F,2|!
|:G,2G2 _BAGE|FGc_B AGFG|G,2G2 _BAGF|DFGA GFD2|!
G,2G2 _BAGE|FGc_B AGFG|G,2G2 _BAGF|1 DFGA GFD2:|2 DFGA GDcd|!
d2dd e2ed|c2cd gdcd|d2G2 _BAGA|_BGAF G2cd|!
d2dd e2ed|c2cd gd_ba|gfdc _BAGF|DFG2 g2cd|!
d2dd e2ed|c2cd gdcd|[g2d2][g2d2] _BAG2|c2_Bc AGFG|!
d2dd e2ed|c2cd gd[_b2e2]|z2gf dc_BG|AFAF G2DF !
|:G2G2 gdGd|GFG2 fcGc|G2G2 gdGd|Bdgb d'bgd|!
G2G2 gdGd|GFG2 fcGc|DFG2 _B2c^c|1 dc_BA G2DF:|2 dcA_B G4|!
W:Created with TablEdit http://www.tabledit.com/
